X:93
T:Bunch of Green Rushes
R:reel
D:Kevin Burke: Up Close.
D:Frankie Gavin & Alec Finn.
Z:id:hn-reel-93
M:C|
K:Dmix
d |: cAGA ~=F3d | cAGB AddB | cAGA =F2eg |1 ^fdec AddB :|2 ^fdec Add2 ||
|: Ad~d2 cAGA | =FGAc cAGc | Ad~d2 cAGA |1 cdeg gedc :|2 cdeg ^fddc ||
|: d2^fd adfd | c2ec gcec |1 d2^fd adfd | cAGc Addc :|2 ~f3g fede | dcAG Add ||
P:variations
B |: cAGE ~=F3d | cAGc Ad~d2 | cAGE =F2ag |1 ^fdec Ad~d2 :|2 ^fdec Add2 ||
~d3B cAGD | (3E=FG AB cAGc | AddB cAGA | cdeg gecA |
~d3B cAGE | =FGAc cAGc | AddB cAGA | cdeg gecA ||
de^fa afdA | (3Bcd e^f gecA | d2^fa afdB | cAGc AD (3^FED |
~d3f afdA | (3Bcd e^f g2fg | g^fge fded | cAGc Add ||
<end>
<start>
